Numix-Circle/48x48/apps/ipscan.svg

<?xml version="1.0" encoding="UTF-8" standalone="no"?>
<svg
   xmlns:dc="http://purl.org/dc/elements/1.1/"
   xmlns:cc="http://creativecommons.org/ns#"
   xmlns:rdf="http://www.w3.org/1999/02/22-rdf-syntax-ns#"
   xmlns:svg="http://www.w3.org/2000/svg"
   xmlns="http://www.w3.org/2000/svg"
   xmlns:xlink="http://www.w3.org/1999/xlink"
   xmlns:sodipodi="http://sodipodi.sourceforge.net/DTD/sodipodi-0.dtd"
   xmlns:inkscape="http://www.inkscape.org/namespaces/inkscape"
   viewBox="0 0 48 48"
   id="svg2"
   version="1.1"
   inkscape:version="0.91 r13725"
   sodipodi:docname="ipscan5.svg">
  <metadata
     id="metadata61">
    <rdf:RDF>
      <cc:Work
         rdf:about="">
        <dc:format>image/svg+xml</dc:format>
        <dc:type
           rdf:resource="http://purl.org/dc/dcmitype/StillImage" />
        <dc:title></dc:title>
      </cc:Work>
    </rdf:RDF>
  </metadata>
  <sodipodi:namedview
     pagecolor="#ffffff"
     bordercolor="#666666"
     borderopacity="1"
     objecttolerance="10"
     gridtolerance="10"
     guidetolerance="10"
     inkscape:pageopacity="0"
     inkscape:pageshadow="2"
     inkscape:window-width="1366"
     inkscape:window-height="718"
     id="namedview59"
     showgrid="false"
     inkscape:zoom="1"
     inkscape:cx="179.49848"
     inkscape:cy="22.624369"
     inkscape:window-x="0"
     inkscape:window-y="25"
     inkscape:window-maximized="1"
     inkscape:current-layer="svg2">
    <inkscape:grid
       type="xygrid"
       id="grid4213" />
  </sodipodi:namedview>
  <defs
     id="defs4">
    <linearGradient
       inkscape:collect="always"
       id="linearGradient4217">
      <stop
         style="stop-color:#16ee4e;stop-opacity:1"
         offset="0"
         id="stop4219" />
      <stop
         style="stop-color:#29ef5c;stop-opacity:1"
         offset="1"
         id="stop4221" />
    </linearGradient>
    <linearGradient
       inkscape:collect="always"
       xlink:href="#linearGradient4217"
       id="linearGradient4223"
       x1="1"
       y1="47"
       x2="1"
       y2="1"
       gradientUnits="userSpaceOnUse" />
  </defs>
  <g
     id="g21">
    <path
       d="m 36.31 5 c 5.859 4.062 9.688 10.831 9.688 18.5 c 0 12.426 -10.07 22.5 -22.5 22.5 c -7.669 0 -14.438 -3.828 -18.5 -9.688 c 1.037 1.822 2.306 3.499 3.781 4.969 c 4.085 3.712 9.514 5.969 15.469 5.969 c 12.703 0 23 -10.298 23 -23 c 0 -5.954 -2.256 -11.384 -5.969 -15.469 c -1.469 -1.475 -3.147 -2.744 -4.969 -3.781 z m 4.969 3.781 c 3.854 4.113 6.219 9.637 6.219 15.719 c 0 12.703 -10.297 23 -23 23 c -6.081 0 -11.606 -2.364 -15.719 -6.219 c 4.16 4.144 9.883 6.719 16.219 6.719 c 12.703 0 23 -10.298 23 -23 c 0 -6.335 -2.575 -12.06 -6.719 -16.219 z"
       opacity="0.05"
       id="path23" />
    <path
       d="m 41.28 8.781 c 3.712 4.085 5.969 9.514 5.969 15.469 c 0 12.703 -10.297 23 -23 23 c -5.954 0 -11.384 -2.256 -15.469 -5.969 c 4.113 3.854 9.637 6.219 15.719 6.219 c 12.703 0 23 -10.298 23 -23 c 0 -6.081 -2.364 -11.606 -6.219 -15.719 z"
       opacity="0.1"
       id="path25" />
    <path
       d="m 31.25 2.375 c 8.615 3.154 14.75 11.417 14.75 21.13 c 0 12.426 -10.07 22.5 -22.5 22.5 c -9.708 0 -17.971 -6.135 -21.12 -14.75 a 23 23 0 0 0 44.875 -7 a 23 23 0 0 0 -16 -21.875 z"
       opacity="0.2"
       id="path27" />
  </g>
  <g
     id="g29">
    <path
       d="m 24 1 c 12.703 0 23 10.297 23 23 c 0 12.703 -10.297 23 -23 23 -12.703 0 -23 -10.297 -23 -23 0 -12.703 10.297 -23 23 -23 z"
       fill="url(#linearGradient3764)"
       fill-opacity="1"
       id="path31"
       style="fill:url(#linearGradient4223);fill-opacity:1" />
  </g>
  <g
     id="g33" />
  <path
     style="fill:#000000;fill-opacity:0.09803922"
     clip-path="none"
     d="M 23 13 L 19.427734 23 L 1.0253906 23 C 1.0111796 23.331898 1 23.664602 1 24 C 1 25.017673 1.073056 26.017268 1.2011719 27 L 18 27 L 24 27 L 21.5 39 L 30.324219 27 L 46.798828 27 C 46.926944 26.017268 47 25.017673 47 24 C 47 23.664602 46.988819 23.331898 46.974609 23 L 33.265625 23 L 34 22 L 26 22 L 31 13 L 23 13 z "
     id="path4223-2" />
  <path
     inkscape:connector-curvature="0"
     id="path4255"
     d="m 1.0918004,21.999997 c -0.05687,0.659695 -0.0918,1.325559 -0.0918,2 0,0.674441 0.03493,1.340305 0.0918,2 l 45.8164066,0 c 0.05687,-0.659695 0.0918,-1.325559 0.0918,-2 0,-0.674441 -0.03493,-1.340305 -0.0918,-2 l -45.8164036,0 z"
     style="fill:#aaaaaa;fill-opacity:1" />
  <g
     id="g55">
    <path
       d="m 40.03 7.531 c 3.712 4.084 5.969 9.514 5.969 15.469 0 12.703 -10.297 23 -23 23 c -5.954 0 -11.384 -2.256 -15.469 -5.969 4.178 4.291 10.01 6.969 16.469 6.969 c 12.703 0 23 -10.298 23 -23 0 -6.462 -2.677 -12.291 -6.969 -16.469 z"
       opacity="0.1"
       id="path57" />
  </g>
  <g
     id="g4303">
    <path
       id="path4296"
       d="M 19.785156 22 L 18.357422 26 L 31.058594 26 L 34 22 L 26 22 L 19.785156 22 z "
       style="fill:#000000;fill-opacity:0.09803922" />
    <path
       style="fill:#f9f9f9;fill-opacity:1;fill-rule:nonzero;stroke:none"
       d="m 22,12 -5,14 6,0 -2.5,12 12.5,-17 -8,0 5,-9 z"
       id="rect3814"
       inkscape:connector-curvature="0"
       sodipodi:nodetypes="cccccccc" />
  </g>
</svg>

<svg xmlns="http://www.w3.org/2000/svg" viewBox="0 0 48 48"><defs><linearGradient id="linearGradient4223" y1="47" x2="0" y2="1" gradientUnits="userSpaceOnUse"><stop stop-color="#16ee4e" stop-opacity="1"/><stop offset="1" stop-color="#29ef5c" stop-opacity="1"/></linearGradient></defs><g><path d="m 36.31 5 c 5.859 4.062 9.688 10.831 9.688 18.5 c 0 12.426 -10.07 22.5 -22.5 22.5 c -7.669 0 -14.438 -3.828 -18.5 -9.688 c 1.037 1.822 2.306 3.499 3.781 4.969 c 4.085 3.712 9.514 5.969 15.469 5.969 c 12.703 0 23 -10.298 23 -23 c 0 -5.954 -2.256 -11.384 -5.969 -15.469 c -1.469 -1.475 -3.147 -2.744 -4.969 -3.781 z m 4.969 3.781 c 3.854 4.113 6.219 9.637 6.219 15.719 c 0 12.703 -10.297 23 -23 23 c -6.081 0 -11.606 -2.364 -15.719 -6.219 c 4.16 4.144 9.883 6.719 16.219 6.719 c 12.703 0 23 -10.298 23 -23 c 0 -6.335 -2.575 -12.06 -6.719 -16.219 z" opacity="0.05"/><path d="m 41.28 8.781 c 3.712 4.085 5.969 9.514 5.969 15.469 c 0 12.703 -10.297 23 -23 23 c -5.954 0 -11.384 -2.256 -15.469 -5.969 c 4.113 3.854 9.637 6.219 15.719 6.219 c 12.703 0 23 -10.298 23 -23 c 0 -6.081 -2.364 -11.606 -6.219 -15.719 z" opacity="0.1"/><path d="m 31.25 2.375 c 8.615 3.154 14.75 11.417 14.75 21.13 c 0 12.426 -10.07 22.5 -22.5 22.5 c -9.708 0 -17.971 -6.135 -21.12 -14.75 a 23 23 0 0 0 44.875 -7 a 23 23 0 0 0 -16 -21.875 z" opacity="0.2"/></g><g><path d="m 24 1 c 12.703 0 23 10.297 23 23 c 0 12.703 -10.297 23 -23 23 -12.703 0 -23 -10.297 -23 -23 0 -12.703 10.297 -23 23 -23 z" fill="url(#linearGradient4223)" fill-opacity="1"/></g><path clip-path="none" d="m 23 13 l -3.572 10 l -18.402 0 c -0.014 0.332 -0.025 0.665 -0.025 1 c 0 1.018 0.073 2.02 0.201 3 l 16.799 0 l 6 0 l -2.5 12 l 8.824 -12 l 16.475 0 c 0.128 -0.983 0.201 -1.982 0.201 -3 c 0 -0.335 -0.011 -0.668 -0.025 -1 l -13.709 0 l 0.734 -1 l -8 0 l 5 -9 l -8 0 z" fill="#000" fill-opacity="0.098"/><path d="m 1.092 22 c -0.057 0.66 -0.092 1.326 -0.092 2 0 0.674 0.035 1.34 0.092 2 l 45.816 0 c 0.057 -0.66 0.092 -1.326 0.092 -2 0 -0.674 -0.035 -1.34 -0.092 -2 l -45.816 0 z" fill="#aaa" fill-opacity="1"/><g><path d="m 40.03 7.531 c 3.712 4.084 5.969 9.514 5.969 15.469 0 12.703 -10.297 23 -23 23 c -5.954 0 -11.384 -2.256 -15.469 -5.969 4.178 4.291 10.01 6.969 16.469 6.969 c 12.703 0 23 -10.298 23 -23 0 -6.462 -2.677 -12.291 -6.969 -16.469 z" opacity="0.1"/></g><g><path d="m 19.785 22 l -1.428 4 l 12.701 0 l 2.941 -4 l -8 0 l -6.215 0 z" fill="#000" fill-opacity="0.098"/><path d="m 22 12 -5 14 6 0 -2.5 12 12.5 -17 -8 0 5 -9 z" fill="#f9f9f9" fill-rule="nonzero" stroke="none" fill-opacity="1"/></g></svg>
